X:1
T:Title
%%score 1 2 3 4
L:1/8
M:4/4
K:C
V:1 treble nm="Part_1"
V:2 treble nm="Part_2"
V:3 bass nm="Part_3"
V:4 bass nm="Part_4"
V:1
 z2 dd d2 B2 | d2 de c2 cB | A3 G G4 | B2 Bc A2 AG | G3 ^F G4 | GGAB c2 c2 | ccde f3 e | d4 c2 ee | %8
 e2 c2 e2 ef | d2 dc B3 A | A4 AABc | d2 d2 BBcd | edcB A4 | G8 | z2 B4 B2 | B4 eBcd | c2 cc f4- | %17
 f2 fe e4 | d2 d/c/ d/e/ cc cc/B/ | BB B/A/ B/c/ AA AA/G/ | GG B/A/ B/c/ AA AA/G/ | ^F2 FE E4 | %22
 z8 | z8 | z8 | z8 | z8 | z8 | z8 | z8 | z e/e/ ee/e/ dd/^c/ cc | z d dc/d/ Bd d>(^c | %32
 d4) z d d/c/B/A/ | G>G G2 z4 | z2 AA AG/A/ ^FF | BBdd dc/d/ BB | e2 e2 z e e/d/c/B/ | %37
 A>A A2 BcdG | A4 G4 | z2 BB B2 B2 | z2 ee A2 A2 | BB/B/ AG ^FF/G/ F2 | E2 ee dd/c/ B2 | A2 z2 z4 | %44
 z2 d4 ef | d4 z ef^c | dd A4 AG | A2 A2 z2 ^cc | ^cc/c/ cc/B/ dd A2 | z2 B2 z ^FGA | ^F4 E2 ee | %51
 ee/e/ ee/^d/ ee B2 | z2 c2 z cde | B4 A4 | z4 z fef | d3 c/d/ e2 ed | d4 c4 | ee ef/g/ d2 d2 | %58
 z e e/f/d/e/ c2 c2 | z d d/e/c/d/ B2 B2 | z g g/a/f/g/ ee z e | B2 c/B/c/d/ B4 | A4 z2 AA | %63
 A2 AB G2 c2 | B3 A A4 | Gd d>c B4 | z e/e/ ed/e/ ^c2 c2 | z d/d/ dc/d/ Bd d>^c | dAAA A>A A2 | %69
 B>d c>B A4 | G4 e>g fe | d4 c4 | z4 z2 cc | f2 fe d2 d2 | E>F GE A2 A2 | z2 AA d2 cd | %76
 BBBB e2 de | c2 c2 ^F>G AF | B2 G2 G2 ^F2 | G8 | z2 B4 AG | ^F2 F2 z2 B2- | B2 AG ^F3 E | %83
 E4 z2 BB | c6 cB | B4 A4 | z2 ee eeee | e>e ef d2 d/e/f | e4 d4 | z8 | z4 z G/A/ B/c/d/B/ | %91
 e2 e2 z A/B/ c/d/e/c/ | f2 e2 d4 | c4 z4 | z G/A/ B/c/d/B/ ee c2- | c2 B/A/B/c/ A4 | G8 |] %97
V:2
 z8 | z8 | z2 dd d2 B2 | d2 de c2 cB | A3 G G4 | EEFG A2 A2 | AABc d2 c2 | c3 B c2 cc | %8
 c2 A2 c2 cd | B2 BA A3 ^G | A4 ^FFGA | B2 B2 GGAB | cB AG G2 (^F2 | G8) | z2 ^G4 G2 | ^G4 cGAB | %16
 A2 AA d4- | d2 dd d2 ^c2 | d4 z4 | z2 d/c/ d/e/ cc cc/B/ | BB G/^F/ G/A/ FF FF/E/ | E2 E^D E4 | %22
 z8 | z8 | z8 | z8 | z8 | z8 | z8 | z8 | z ^c/c/ cc/c/ BB/A/ AA | z A AA/B/ GA E2 | %32
 D4 z B B/A/G/F/ | E>E E2 z4 | z2 ^FF FE/F/ DD | GGBB BA/B/ GG | c2 c2 z c c/B/A/G/ | %37
 ^F>F F2 GBcG | G2 (^F2 G4) | z2 ^GG G2 G2 | z2 ^cc ^F2 F2 | GG/G/ ^FE ^DD/E/ D2 | %42
 E2 cc BB/A/ ^G2 | A2 z2 z4 | z8 | z8 | z8 | z8 | z8 | z8 | z8 | z8 | z8 | z8 | z4 z dcd | %55
 B3 A/B/ c2 cc | c2 (B2 c4) | cc cd/e/ B2 B2 | z c c/d/B/c/ A2 A2 | z B B/c/A/B/ G2 G2 | %60
 z e e/f/d/e/ cc z c | ^G2 A2 A2 G2 | A4 z2 ^FF | ^F2 FG E2 A2 | GD G4 ^F2 | GB B>A G4 | %66
 z c/c/ cB/c/ A2 A2 | z A/A/ AA/A/ GA E>D | D^FFF F>F F2 | G>B AG G2 ^F2 | G4 G>G Ac | %71
 c2 (B2 c2) GG | c2 cB A2 A2 | z4 B>c dB | e2 e2 z2 AA | A2 GA ^F2 F2 | G>A BG c2 c2 | A>B cA d4- | %78
 d2 B2 A4 | G8 | z2 G4 ^FE | ^D2 D2 z2 G2- | G2 ^FE E3 ^D | E4 z2 ^GG | A6 AA | A2 ^G2 A4 | %86
 z2 ^cc cccc | ^c>c c>d B=c d2- | d2 ^c2 d4 | z8 | z D/E/ ^F/G/A/F/ B2 B2 | z4 c3 c | de/d/ c4 B2 | %93
 c4 z F/G/ A/B/c/A/ | d2 d2 G3 E | ^F2 G4 F2 | G8 |] %97
V:3
 z8 | z8 | z8 | z8 | z4 G,G,G,B, | C2 C2 F,2 F,F, | F,2 F,E, D,2 E,/D,/E,/F,/ | G,3 G, C,4 | z8 | %9
 z8 | A,,A,,B,,C, D,2 D,2 | B,,B,,C,D, E,2 E,2 | C,D,E,C, D,4 | G,,8 | z2 E,4 E,2 | E,8 | %16
 A,E,F,G, F,2 F,F, | _B,2 F,G, A,4 | D,4 z4 | z8 | z8 | z4 z2 E,2 | ^G,>G, G,>G, B,>B, B,2 | %23
 z2 ^D,D, D,2 D,/E,/^F, | E,2 E,E, ^G,A,B,G, | A,2 A,A,, ^C,D,E,C, | %26
 D,D, D,/E,/D,/C,/ B,,B,,/D,/ E,D,/E,/ | A,,2 A,/B,/A,/G,/ ^F,G,/A,/ B,A,/B,/ | %28
 E, E,/^F,/ ^G,/A,/B,/G,/ A,>G, F,2 | ^C,>C, E,2 A,,4 | z8 | z8 | %32
 z D, D,/C,/B,,/A,,/ G,,>G,, G,,2 | z2 C,C, C,B,,/C,/ A,,A,, | D,2 D,2 z4 | z4 z G, G,/F,/E,/D,/ | %36
 C,C,/C,/ C,C, C,B,,/C,/ A,,A,, | D,D, D,/E,/D,/C,/ B,,2 G,,2 | D,4 G,,4 | z2 E,E, E,2 E,2 | %40
 z2 ^C,C, D,2 D,2 | G,,G,,/G,,/ A,,A,, B,,B,,/A,,/ B,,2 | E,2 C,C, D,D,/D,/ E,2 | A,,2 z2 z4 | z8 | %45
 z8 | z8 | z8 | z8 | z8 | z8 | z8 | z8 | z4 z2 A,2 | A,G,F,E, D,2 D,2 | z G,F,G, E,2 E,F, | %56
 G,4 C,4 | z4 z G, G,/A,/F,/G,/ | E,2 E,2 A,A, A,B,/C/ | G,2 G,2 z E, E,/F,/D,/E,/ | %60
 C,2 C,2 z2 z C, | E,2 C,2 D,B,, E,2 | A,,4 z2 D,D, | D,2 D,B,, C,2 A,,2 | B,,2 G,,2 D,4 | %65
 G,,4 z G, G,>F, | E,4 z A,/A,/ A,G,/A,/ | ^F,2 F,2 G,F,/G,/ A,>A, | D,D,D,D, D,>D, D,2 | %69
 B,,>B,, C,C, D,4 | G,,4 C,>C, F,F, | G,4 C,4 | z2 C,C, F,2 F,E, | D,2 D,2 G,>A, B,G, | %74
 C2 C2 A,,>B,, ^C,A,, | D,2 D,2 D,>E, ^F,D, | G,2 G,2 C,>D, E,C, | F,2 F,2 D,>E, ^F,D, | %78
 G,2 B,,2 D,4 | G,,8 | z8 | z8 | z8 | z8 | z2 A,,B,, C,2 C,D, | E,4 A,,4 | z8 | z8 | z4 z2 D,D, | %89
 D,2 D,D, B,,A,, B,,G,, | D,4 G,,4 | z C,/D,/ E,/F,/G,/E,/ A,2 A,2 | D,2 E,/D,/E,/F,/ G,4 | %93
 C, C,/D,/ E,/F,/G,/E,/ A,2 A,2 | z4 z C,/D,/ E,/F,/G,/C,/ | D,2 B,,C, D,4 | G,,8 |] %97
V:4
 G,,8 | G,,4 A,,2 B,,2 | C,2 D,2 G,,4 | G,,4 C,4 | D,4 G,,2 A,,B,, | C,4 F,,4 | F,3 E, D,2 E,F, | %7
 G,4 C,4 | A,,8 | B,,2 C,2 D,2 E,2 | A,,2 B,,C, D,4 | B,,2 C,D, E,4 | C,4 D,4 | G,,8 | E,,8 | %15
 E,,4 E,,4 | A,,4 D,,4 | _B,2 F,G, A,4 | D,4 E,2 ^F,2 | G,2 B,,2 C,2 D,2 | G,,4 A,,4 | B,,4 E,,4 | %22
 E,8 | ^D,4 D,4 | E,4 ^G,4 | A,3 A,, ^C,4 | D,4 B,,2 E,2 | A,,2 A,2 ^F,2 B,2 | E,4 A,2 ^F,2 | %29
 ^C,2 E,2 A,,4 | A,4 ^G,2 A,2 | ^F,4 G,F, A,2 | D,4 G,,4 | C,4 C,2 A,,2 | D,8 | B,,2 G,,2 G,4 | %36
 C,4 C,2 A,,2 | D,4 B,,2 G,,2 | D,4 G,,4 | E,8 | ^C,4 D,4 | G,,2 A,,2 B,,A,, B,,2 | %42
 E,2 C,2 D,2 E,2 | A,,2 z2 z4 | D,8 | D,8 | D,4 _B,,4 | A,,4 A,4 | A,4 ^F,4 | G,,4 A,,4 | %50
 B,,4 E,4 | ^F,4 E,4 | A,4 F,2 D,2 | E,4 A,,4 | A,G,F,E, D,4 | G,2 F,G, E,3 F, | G,4 C,4 | %57
 C,4 G,4 | E,4 A,4 | G,4 G,E,E,D, | C,4 C,3 C, | E,2 C,2 D,2 E,2 | A,,4 D,4 | D,3 B,, C,2 A,,2 | %64
 B,,2 G,,2 D,4 | G,,4 G,3 F, | E,4 A,4 | ^F,4 G,2 A,2 | D,4 D,4 | B,,2 C,2 D,4 | %70
 G,,A,,B,,G,, C,2 F,2 | G,4 C,4 | C,4 F,3 E, | D,4 G,,4 | C,4 A,,B,,^C,A,, | D,4 D,E,^F,D, | %76
 G,4 C,>D,E,C, | F,4 D,E,^F,D, | G,2 B,,2 D,4 | G,,8 | G,,4 A,,4 | B,,4 G,,4 | A,,4 B,,4 | %83
 E,4 E,4 | A,,3 B,, C,3 D, | E,4 A,,4 | A,8 | A,3 D, G,2 D,2 | A,,4 D,4 | D,4 B,,2 G,,2 | %90
 D,4 G,,4 | C,4 A,,4 | D,2 E,F, G,4 | C,4 F,,4 | G,,4 C,4 | D,2 B,,C, D,4 | G,,8 |] %97

